modules/feathericon/icons/comments.svg

<?xml version="1.0" encoding="UTF-8"?>
<svg width="24px" height="24px" viewBox="0 0 24 24" version="1.1" xmlns="http://www.w3.org/2000/svg" xmlns:xlink="http://www.w3.org/1999/xlink">
    <!-- Generator: sketchtool 52.2 (67145) - http://www.bohemiancoding.com/sketch -->
    <title>comments</title>
    <desc>Created with sketchtool.</desc>
    <g id="web-app" stroke="none" stroke-width="1" fill="none" fill-rule="evenodd">
        <g id="comments" fill="#000000">
            <path d="M4.36807153,14.6319285 L3,16 L3,13.1990947 C2.3665714,12.2731238 2,11.1760776 2,10 C2,6.6862915 4.91014913,4 8.5,4 C11.7539448,4 14.4494375,6.20709329 14.9253876,9.08796551 C15.2740412,9.03017523 15.6331764,9 16,9 C19.3137085,9 22,11.4624339 22,14.5 C22,15.6245096 21.6318473,16.6701981 21,17.5413122 L21,20 L19.775127,18.775127 C18.7441043,19.5410969 17.4305154,20 16,20 C13.1750292,20 10.8060486,18.2103673 10.1687006,15.8004405 C9.63618921,15.9306323 9.07687052,16 8.5,16 C6.93068641,16 5.4912656,15.4866426 4.36807153,14.6319285 Z M8.5,14 C11.0194495,14 13,12.1717996 13,10 C13,7.82820043 11.0194495,6 8.5,6 C5.98055046,6 4,7.82820043 4,10 C4,12.1717996 5.98055046,14 8.5,14 Z M12.0460365,15.0293238 C12.3368346,16.6882369 13.9720141,18 16,18 C18.2395107,18 20,16.4003246 20,14.5 C20,12.5996754 18.2395107,11 16,11 C15.6110659,11 15.2365796,11.0482478 14.8832534,11.1379391 C14.5450921,12.7638902 13.4959251,14.1564905 12.0460365,15.0293238 Z" id="Shape"></path>
        </g>
    </g>
</svg>

<svg width="24" height="24" viewBox="0 0 24 24" xmlns="http://www.w3.org/2000/svg"><path d="M4.368 14.632L3 16v-2.8A5.64 5.64 0 0 1 2 10c0-3.314 2.91-6 6.5-6 3.254 0 5.95 2.207 6.425 5.088A6.57 6.57 0 0 1 16 9c3.314 0 6 2.462 6 5.5 0 1.125-.368 2.17-1 3.041V20l-1.225-1.225A6.32 6.32 0 0 1 16 20c-2.825 0-5.194-1.79-5.831-4.2-.533.13-1.092.2-1.669.2a6.81 6.81 0 0 1-4.132-1.368zM8.5 14c2.52 0 4.5-1.828 4.5-4 0-2.172-1.98-4-4.5-4S4 7.828 4 10c0 2.172 1.98 4 4.5 4zm3.546 1.03C12.336 16.687 13.972 18 16 18c2.24 0 4-1.6 4-3.5S18.24 11 16 11c-.389 0-.763.048-1.117.138-.338 1.626-1.387 3.018-2.837 3.891z" fill="#000" fill-rule="evenodd"/></svg>
